public/img/icon_03.svg

<?xml version="1.0" ?><svg height="24" viewBox="0 0 24 24" width="24" xmlns="http://www.w3.org/2000/svg"><path d="M10.1353075,2.27592318 C10.2402118,2.0052531 10.405725,1.75363521 10.6305147,1.54243008 C11.4002733,0.819189975 12.5997267,0.819189975 13.3694853,1.54243008 C13.5947695,1.75409979 13.7605161,2.00636024 13.8653839,2.27770959 C16.7616088,3.1234978 19,5.9408248 19,10 C19,12.6246407 19.5316915,14.1023939 20.5153799,15.1769385 C20.7591805,15.4432571 21.6159553,16.2145106 21.7120353,16.3119441 L22,16.6039656 L22,20.0140878 L15.8743256,20.0140878 C15.6241439,20.9988638 15.0074832,21.861375 14.0878016,22.4226016 C12.8058555,23.2048965 11.1941445,23.2048965 9.91219841,22.4226016 C8.87009269,21.7866669 8.29383594,21.076125 8.08797645,20.0140878 L2,20.0140878 L2,16.6039656 L2.2879647,16.3119441 C2.39205094,16.2070827 3.24384208,15.442761 3.48595854,15.1793313 C4.46898326,14.1097716 5,12.6338939 5,10 C5,5.92919283 7.23535296,3.11802713 10.1353075,2.27592318 Z M10.1786171,20.0140878 C10.3199018,20.276911 10.5607105,20.4753661 10.9540156,20.7153766 C11.596268,21.1073049 12.403732,21.1073049 13.0459844,20.7153766 C13.3433933,20.5338858 13.5757865,20.2937382 13.7367218,20.0140878 L10.1786171,20.0140878 Z M20,17.4519264 C19.701613,17.1774463 19.2506046,16.7572744 19.0401756,16.5274096 C17.7059972,15.0700027 17,13.1077943 17,10 C17,6.23128941 14.6597092,4.01238167 12,4.01238167 C9.33276935,4.01238167 7,6.21989471 7,10 C7,13.1178011 6.29422173,15.0794011 4.95848591,16.5327208 C4.74843403,16.7612633 4.29607181,17.181102 4,17.45237 L4,18.0140878 L20,18.0140878 L20,17.4519264 Z" fill-rule="evenodd"/></svg>

<?xml version="1.0" encoding="utf-8"?>
<!-- Generator: Adobe Illustrator 22.0.1, SVG Export Plug-In . SVG Version: 6.00 Build 0)  -->
<svg version="1.1" id="레이어_1" xmlns="http://www.w3.org/2000/svg" xmlns:xlink="http://www.w3.org/1999/xlink" x="0px"
	 y="0px" viewBox="0 0 24 24" style="enable-background:new 0 0 24 24;" xml:space="preserve">
<style type="text/css">
	.st0{fill:#EEEEEE;}
</style>
<path class="st0" d="M10.1,2.3c0.1-0.3,0.3-0.5,0.5-0.7c0.8-0.7,2-0.7,2.7,0c0.2,0.2,0.4,0.5,0.5,0.7C16.8,3.1,19,5.9,19,10
	c0,2.6,0.5,4.1,1.5,5.2c0.2,0.3,1.1,1,1.2,1.1l0.3,0.3V20h-6.1c-0.3,1-0.9,1.8-1.8,2.4c-1.3,0.8-2.9,0.8-4.2,0
	c-1-0.6-1.6-1.3-1.8-2.4H2v-3.4l0.3-0.3c0.1-0.1,1-0.9,1.2-1.1C4.5,14.1,5,12.6,5,10C5,5.9,7.2,3.1,10.1,2.3z M10.2,20
	c0.1,0.3,0.4,0.5,0.8,0.7c0.6,0.4,1.4,0.4,2.1,0c0.3-0.2,0.5-0.4,0.7-0.7H10.2z M20,17.5c-0.3-0.3-0.7-0.7-1-0.9
	c-1.3-1.5-2-3.4-2-6.5c0-3.8-2.3-6-5-6c-2.7,0-5,2.2-5,6c0,3.1-0.7,5.1-2,6.5c-0.2,0.2-0.7,0.6-1,0.9V18h16V17.5z"/>
</svg>
